img/support/icon1.svg

<svg width="29" height="34" viewBox="0 0 29 34" fill="none" xmlns="http://www.w3.org/2000/svg">
<path opacity="0.6" fill-rule="evenodd" clip-rule="evenodd" d="M4.31167 0.0772785C3.49373 0.28469 2.7115 0.951105 2.3543 1.74494L2.15973 2.17737H1.21225H0.264769L0.132416 2.35243L0 2.52749V18.1006V33.6739L0.156817 33.8369L0.31357 34H8.79537H17.2772L20.3599 30.7937L23.4427 27.5874V15.0455V2.5035L23.2859 2.34047L23.1292 2.17737H15.497H7.86481L7.65325 1.72933C7.40586 1.20549 6.88296 0.632148 6.41238 0.368798C5.7915 0.0212069 4.97797 -0.0916671 4.31167 0.0772785ZM5.78282 1.25697C6.11913 1.41908 6.45474 1.71259 6.59891 1.97069L6.71427 2.17737H5.01796C4.08491 2.17737 3.32159 2.15286 3.32159 2.1229C3.32159 2.00504 3.7944 1.50299 4.05495 1.34414C4.56118 1.03561 5.25117 1.0008 5.78282 1.25697ZM24.6675 2.3311C24.465 2.55539 24.479 2.92437 24.6969 3.10262C24.7895 3.17836 24.9332 3.24034 25.0163 3.24034H25.1674V18.0887V32.937H22.2901H19.4127L19.2559 33.1001C19.0007 33.3655 19.0652 33.7382 19.3983 33.9227C19.499 33.9785 20.4186 34 22.7004 34H25.8629L26.0421 33.8397L26.2214 33.6793L26.2396 18.2772C26.2496 9.8059 26.241 2.77768 26.2207 2.65876C26.1542 2.27184 25.985 2.17737 25.3581 2.17737C24.864 2.17737 24.7919 2.19345 24.6675 2.3311ZM27.4885 2.2755C27.091 2.56502 27.3463 3.24034 27.8532 3.24034C27.9766 3.24034 27.978 3.40391 27.978 18.0887V32.937H27.8006C27.4266 32.937 27.1948 33.3054 27.3398 33.6694C27.4396 33.9198 27.6501 34 28.2075 34C28.6308 34 28.7046 33.9811 28.8432 33.8369L29 33.6739V18.1006V2.52749L28.8676 2.35243C28.7427 2.18727 28.7038 2.17737 28.1792 2.17737C27.7922 2.17737 27.5822 2.2072 27.4885 2.2755ZM6.89868 5.273C6.89868 7.55619 6.89893 7.55493 6.43544 7.82586C6.02772 8.06416 5.56091 7.9188 5.29895 7.47202C5.1871 7.28122 5.17446 7.13134 5.17426 5.99562C5.17407 4.94435 5.15676 4.70591 5.07174 4.57962C4.93089 4.37048 4.70899 4.29354 4.48293 4.37552C4.16425 4.49106 4.14291 4.61071 4.16431 6.16616C4.1829 7.51886 4.19178 7.60781 4.3371 7.90358C4.92655 9.10295 6.42829 9.39035 7.34083 8.47845C7.49318 8.32618 7.69318 8.03453 7.78522 7.83031L7.95264 7.459L7.97404 5.34967L7.99538 3.24034H15.2081H22.4207V15.0306V26.8209L19.6438 26.8395L16.8669 26.8582L16.7214 27.0095L16.576 27.1607L16.558 30.0489L16.5402 32.937H8.78106H1.02203V18.0887V3.24034H3.96035H6.89868V5.273ZM4.42799 10.9594C4.21503 11.0664 4.11832 11.3663 4.21688 11.6137C4.26108 11.7248 4.34891 11.8443 4.41202 11.8795C4.48363 11.9193 7.23786 11.9426 11.7331 11.9413C17.544 11.9396 18.9606 11.9225 19.0487 11.8528C19.3263 11.6335 19.3144 11.1976 19.0251 10.9868C18.8932 10.8907 18.1855 10.8809 11.7231 10.8849C6.85 10.888 4.52279 10.9117 4.42799 10.9594ZM4.42799 14.2148C4.21503 14.3218 4.11832 14.6216 4.21688 14.8691C4.26108 14.9801 4.34891 15.0997 4.41202 15.1348C4.48363 15.1747 7.23786 15.1979 11.7331 15.1966C17.544 15.195 18.9606 15.1778 19.0487 15.1082C19.3263 14.8888 19.3144 14.4529 19.0251 14.2421C18.8932 14.1461 18.1855 14.1362 11.7231 14.1403C6.85 14.1433 4.52279 14.1671 4.42799 14.2148ZM4.42799 17.4701C4.21503 17.5771 4.11832 17.877 4.21688 18.1244C4.26108 18.2354 4.34891 18.355 4.41202 18.3902C4.56986 18.478 18.8749 18.4769 19.0328 18.389C19.1936 18.2995 19.3002 17.9571 19.2284 17.7607C19.085 17.3683 19.5447 17.3907 11.7231 17.3956C6.85 17.3987 4.52279 17.4224 4.42799 17.4701ZM4.42799 20.7254C4.21503 20.8325 4.11832 21.1323 4.21688 21.3798C4.26108 21.4908 4.34891 21.6104 4.41202 21.6455C4.56986 21.7333 18.8749 21.7322 19.0328 21.6444C19.1936 21.5548 19.3002 21.2125 19.2284 21.016C19.085 20.6237 19.5447 20.6461 11.7231 20.651C6.85 20.654 4.52279 20.6777 4.42799 20.7254ZM4.33869 24.096C4.23598 24.2028 4.15198 24.3388 4.15198 24.3983C4.15198 24.5624 4.32585 24.877 4.4423 24.9235C4.62052 24.9946 18.904 24.9713 19.0328 24.8997C19.1936 24.8102 19.3002 24.4678 19.2284 24.2714C19.085 23.8792 19.5455 23.9018 11.7023 23.9018H4.52541L4.33869 24.096ZM21.5903 27.9714C21.5903 27.9807 20.6992 28.9148 19.6101 30.0471L17.63 32.1058V30.0301V27.9544H19.6101C20.6992 27.9544 21.5903 27.962 21.5903 27.9714Z" fill="white"/>
</svg>

<svg width="29" height="34" fill="none" xmlns="http://www.w3.org/2000/svg"><path opacity=".6" fill-rule="evenodd" clip-rule="evenodd" d="M4.312.077c-.818.208-1.6.874-1.958 1.668l-.194.432H.265l-.133.175L0 2.527v31.147l.157.163.157.163h16.963l3.083-3.206 3.083-3.207V2.503l-.157-.163-.157-.163H7.865l-.212-.448c-.247-.524-.77-1.097-1.24-1.36C5.79.02 4.977-.091 4.311.077zm1.47 1.18c.337.162.673.456.817.714l.115.206H5.018c-.933 0-1.696-.024-1.696-.054 0-.118.472-.62.733-.779a1.871 1.871 0 011.728-.087zm18.886 1.074c-.203.224-.189.593.029.772a.621.621 0 00.32.137h.15v29.697h-5.754l-.157.163c-.255.265-.19.638.142.823.101.055 1.02.077 3.302.077h3.163l.18-.16.178-.16.019-15.403c.01-8.471.001-15.5-.02-15.618-.066-.387-.235-.482-.862-.482-.494 0-.566.016-.69.154zm2.82-.055c-.397.289-.142.964.365.964.124 0 .125.164.125 14.849v14.848h-.177c-.374 0-.606.368-.461.732.1.25.31.331.867.331.424 0 .498-.019.636-.163l.157-.163V2.527l-.132-.175c-.125-.165-.164-.175-.689-.175-.387 0-.597.03-.69.099zM6.898 5.272c0 2.283 0 2.282-.463 2.553-.407.238-.874.093-1.136-.354-.112-.19-.125-.34-.125-1.476 0-1.052-.017-1.29-.102-1.416-.141-.21-.363-.286-.59-.204-.318.115-.34.235-.318 1.79.019 1.353.028 1.442.173 1.738.59 1.199 2.091 1.486 3.004.574.152-.152.352-.443.444-.648l.168-.371.021-2.11.021-2.109h14.426v23.58l-2.777.02-2.777.018-.146.151-.145.152-.018 2.888-.018 2.888H1.022V3.24h5.877v2.033zm-2.47 5.686c-.213.107-.31.407-.211.655.044.11.132.23.195.265.072.04 2.826.064 7.321.062 5.811-.001 7.228-.019 7.316-.088a.548.548 0 00-.024-.866c-.132-.096-.84-.106-7.302-.102-4.873.003-7.2.027-7.295.074zm0 3.256c-.213.107-.31.407-.211.654.044.111.132.23.195.266.072.04 2.826.063 7.321.062 5.811-.002 7.228-.02 7.316-.089a.548.548 0 00-.024-.866c-.132-.096-.84-.106-7.302-.102-4.873.003-7.2.027-7.295.075zm0 3.255c-.213.107-.31.407-.211.654.044.111.132.231.195.266.158.088 14.463.087 14.62-.001.162-.09.268-.432.196-.628-.143-.393.317-.37-7.505-.365-4.873.003-7.2.026-7.295.074zm0 3.255c-.213.107-.31.407-.211.655.044.11.132.23.195.265.158.088 14.463.087 14.62 0 .162-.09.268-.433.196-.629-.143-.392.317-.37-7.505-.365-4.873.003-7.2.027-7.295.074zm-.09 3.371c-.102.107-.186.243-.186.302 0 .164.174.479.29.526.179.07 14.462.047 14.59-.024.162-.09.268-.432.196-.629-.143-.392.317-.37-7.526-.37H4.525l-.186.195zM21.59 27.97c0 .01-.89.944-1.98 2.076l-1.98 2.059v-4.152h1.98c1.09 0 1.98.008 1.98.017z" fill="#fff"/></svg>
